dist/gl-ng-frontend/assets/img/icon/menu/close.svg

<?xml version="1.0" encoding="UTF-8"?>
<svg enable-background="new 0 0 24 24" version="1.1" viewBox="0 0 24 24" xmlns="http://www.w3.org/2000/svg">
 <style type="text/css">.st0{fill:#FFFFFF;}</style>
 <path class="st0" d="m12 0c-6.6 0-12 5.4-12 12s5.4 12 12 12 12-5.4 12-12-5.4-12-12-12zm5.8 16.7c0.3 0.3 0.3 0.8 0 1.1-0.1 0.1-0.3 0.2-0.5 0.2s-0.4-0.1-0.5-0.2l-4.8-4.7-4.7 4.7c-0.2 0.1-0.3 0.2-0.5 0.2s-0.4-0.1-0.5-0.2c-0.3-0.3-0.3-0.8 0-1.1l4.7-4.7-4.8-4.7c-0.3-0.3-0.3-0.8 0-1.1s0.8-0.3 1.1 0l4.7 4.7 4.7-4.7c0.3-0.3 0.8-0.3 1.1 0s0.3 0.8 0 1.1l-4.7 4.7 4.7 4.7z"/>
</svg>

<?xml version="1.0" encoding="utf-8"?>
<!-- Generator: Adobe Illustrator 23.1.0, SVG Export Plug-In . SVG Version: 6.00 Build 0)  -->
<svg version="1.1" id="Layer_1" xmlns="http://www.w3.org/2000/svg" xmlns:xlink="http://www.w3.org/1999/xlink" x="0px" y="0px"
	 viewBox="0 0 24 24" style="enable-background:new 0 0 24 24;" xml:space="preserve">
<style type="text/css">
	.st0{fill:#FFFFFF;}
</style>
<path class="st0" d="M22.5,0H1.5C0.7,0,0,0.7,0,1.5v21.1C0,23.3,0.7,24,1.5,24h21.1c0.8,0,1.5-0.7,1.5-1.5V1.5C24,0.7,23.3,0,22.5,0
	z M17.8,16.7c0.3,0.3,0.3,0.8,0,1.1c-0.1,0.1-0.3,0.2-0.5,0.2c-0.2,0-0.4-0.1-0.5-0.2L12,13.1l-4.7,4.7C7.1,17.9,7,18,6.8,18
	c-0.2,0-0.4-0.1-0.5-0.2C6,17.5,6,17,6.3,16.7L11,12L6.2,7.3C5.9,7,5.9,6.5,6.2,6.2s0.8-0.3,1.1,0l4.7,4.7l4.7-4.7
	c0.3-0.3,0.8-0.3,1.1,0s0.3,0.8,0,1.1L13.1,12L17.8,16.7z"/>
<g>
</g>
<g>
</g>
<g>
</g>
<g>
</g>
<g>
</g>
<g>
</g>
</svg>
